;FLAVOR:Marlin
;TIME:1292
;Filament used: 0.672835m
;Layer height: 0.2
;MINX:127.193
;MINY:111.61
;MINZ:0.2
;MAXX:172.807
;MAXY:187.643
;MAXZ:8
;Generated with Cura_SteamEngine 5.3.0
M140 S75
M105
M190 S75
M104 S230
M105
M109 S230
M82 ;absolute extrusion mode
M201 X500.00 Y500.00 Z100.00 E5000.00 ;Setup machine max acceleration
M203 X500.00 Y500.00 Z10.00 E50.00 ;Setup machine max feedrate
M204 P500.00 R1000.00 T500.00 ;Setup Print/Retract/Travel acceleration
M205 X8.00 Y8.00 Z0.40 E5.00 ;Setup Jerk
M220 S100 ;Reset Feedrate
M221 S100 ;Reset Flowrate

G28 ;Home

G92 E0 ;Reset Extruder
G1 Z2.0 F3000 ;Move Z Axis up
G1 X10.1 Y20 Z0.28 F5000.0 ;Move to start position
G1 X10.1 Y200.0 Z0.28 F1500.0 E15 ;Draw the first line
G1 X10.4 Y200.0 Z0.28 F5000.0 ;Move to side a little
G1 X10.4 Y20 Z0.28 F1500.0 E30 ;Draw the second line
G92 E0 ;Reset Extruder
G1 Z2.0 F3000 ;Move Z Axis up

G92 E0
G92 E0
G1 F2700 E-5
;LAYER_COUNT:40
;LAYER:0
M107
G0 F6000 X133.233 Y118.954 Z0.2
;TYPE:SKIRT
G1 F2700 E0
G1 F900 X133.907 Y118.254 E0.03232
G1 X134.857 Y117.364 E0.07562
G1 X135.69 Y116.664 E0.11181
G1 X136.588 Y115.972 E0.14951
G1 X137.493 Y115.347 E0.18609
G1 X138.476 Y114.739 E0.22454
G1 X139.41 Y114.222 E0.26004
G1 X140.467 Y113.699 E0.29927
G1 X141.454 Y113.273 E0.33502
G1 X142.493 Y112.879 E0.37198
G1 X143.42 Y112.579 E0.40439
G1 X144.66 Y112.245 E0.4471
G1 X145.709 Y112.016 E0.48281
G1 X146.72 Y111.847 E0.5169
G1 X148.01 Y111.7 E0.56009
G1 X149.114 Y111.628 E0.59689
G1 X150.267 Y111.61 E0.63524
G1 X151.342 Y111.648 E0.67102
G1 X152.358 Y111.729 E0.70492
G1 X153.597 Y111.894 E0.74649
G1 X154.53 Y112.062 E0.77802
G1 X155.799 Y112.363 E0.8214
G1 X156.85 Y112.664 E0.85776
G1 X157.791 Y112.984 E0.89082
G1 X158.936 Y113.435 E0.93175
G1 X159.907 Y113.874 E0.96719
G1 X160.909 Y114.389 E1.00466
G1 X161.905 Y114.966 E1.04295
G1 X162.798 Y115.54 E1.07825
G1 X163.722 Y116.2 E1.11602
G1 X164.625 Y116.918 E1.15439
G1 X165.427 Y117.613 E1.18969
G1 X166.099 Y118.256 E1.22062
G1 X167.041 Y119.258 E1.26636
G1 X167.735 Y120.072 E1.30194
G1 X168.411 Y120.956 E1.33896
G1 X169.079 Y121.925 E1.3781
G1 X169.664 Y122.871 E1.4151
G1 X170.203 Y123.84 E1.45198
G1 X170.709 Y124.863 E1.48993
G1 X171.152 Y125.889 E1.5271
G1 X171.532 Y126.891 E1.56275
G1 X171.838 Y127.836 E1.59579
G1 X172.173 Y129.082 E1.6387
G1 X172.393 Y130.087 E1.67292
G1 X172.575 Y131.175 E1.70961
G1 X172.715 Y132.399 E1.75058
G1 X172.789 Y133.526 E1.78815
G1 X172.807 Y134.656 E1.82574
G1 X172.769 Y135.738 E1.86175
G1 X172.68 Y136.858 E1.89911
G1 X172.528 Y138.001 E1.93747
G1 X172.356 Y138.947 E1.96945
G1 X172.075 Y140.129 E2.00985
G1 X171.777 Y141.196 E2.0467
G1 X171.46 Y142.149 E2.08011
G1 X171.016 Y143.284 E2.12064
G1 X170.558 Y144.298 E2.15765
G1 X170.056 Y145.277 E2.19424
G1 X169.461 Y146.311 E2.23392
G1 X168.867 Y147.232 E2.27037
G1 X168.24 Y148.11 E2.30625
G1 X167.494 Y149.046 E2.34606
G1 X166.779 Y149.867 E2.38227
G1 X166.126 Y150.544 E2.41356
G1 X166.494 Y150.934 E2.43139
G1 X167.182 Y151.745 E2.46677
G1 X167.836 Y152.602 E2.50262
G1 X168.45 Y153.493 E2.53861
G1 X168.991 Y154.36 E2.5726
G1 X169.547 Y155.367 E2.61086
G1 X170.031 Y156.343 E2.6471
G1 X170.405 Y157.199 E2.67816
G1 X170.839 Y158.356 E2.71926
G1 X171.174 Y159.385 E2.75526
G1 X171.437 Y160.355 E2.78868
G1 X171.66 Y161.377 E2.82348
G1 X171.83 Y162.394 E2.85777
G1 X171.971 Y163.634 E2.89928
G1 X172.043 Y164.73 E2.93581
G1 X172.06 Y165.82 E2.97207
G1 X172.023 Y166.88 E3.00735
G1 X171.939 Y167.923 E3.04215
G1 X171.789 Y169.048 E3.0799
G1 X171.628 Y169.938 E3.10998
G1 X171.34 Y171.167 E3.15196
G1 X171.055 Y172.162 E3.18639
G1 X170.695 Y173.21 E3.22324
G1 X170.294 Y174.224 E3.25951
G1 X169.863 Y175.179 E3.29436
G1 X169.39 Y176.101 E3.32883
G1 X168.84 Y177.057 E3.36551
G1 X168.231 Y178.003 E3.40293
G1 X167.632 Y178.839 E3.43714
G1 X166.915 Y179.74 E3.47543
G1 X166.235 Y180.52 E3.50985
G1 X165.546 Y181.236 E3.5429
G1 X164.666 Y182.072 E3.58327
G1 X164.045 Y182.605 E3.61049
G1 X162.943 Y183.442 E3.65652
G1 X162.061 Y184.05 E3.69215
G1 X161.154 Y184.611 E3.72762
G1 X160.196 Y185.142 E3.76405
G1 X159.276 Y185.597 E3.79819
G1 X158.256 Y186.035 E3.83511
G1 X157.224 Y186.422 E3.87177
G1 X156.194 Y186.757 E3.90779
G1 X155.226 Y187.019 E3.94114
G1 X154.171 Y187.249 E3.97706
G1 X153.208 Y187.41 E4.00953
G1 X151.93 Y187.555 E4.05231
G1 X150.86 Y187.625 E4.08797
G1 X149.749 Y187.643 E4.12493
G1 X148.688 Y187.604 E4.16024
G1 X147.727 Y187.528 E4.19231
G1 X146.537 Y187.369 E4.23224
G1 X145.651 Y187.211 E4.26217
G1 X144.413 Y186.919 E4.30448
G1 X143.362 Y186.617 E4.34085
G1 X142.356 Y186.272 E4.37622
G1 X141.327 Y185.863 E4.41305
G1 X140.417 Y185.45 E4.44629
G1 X139.451 Y184.957 E4.48236
G1 X138.614 Y184.478 E4.51444
G1 X137.616 Y183.836 E4.5539
G1 X136.681 Y183.166 E4.59216
G1 X135.834 Y182.491 E4.62819
G1 X135.084 Y181.841 E4.66119
G1 X134.406 Y181.191 E4.69243
G1 X133.522 Y180.25 E4.73538
G1 X132.816 Y179.42 E4.77162
G1 X132.189 Y178.596 E4.80606
G1 X131.528 Y177.636 E4.84482
G1 X130.972 Y176.737 E4.87998
G1 X130.453 Y175.799 E4.91564
G1 X129.972 Y174.826 E4.95174
G1 X129.556 Y173.876 E4.98623
G1 X129.173 Y172.865 E5.02219
G1 X128.882 Y171.966 E5.05362
G1 X128.552 Y170.735 E5.09601
G1 X128.336 Y169.747 E5.12964
G1 X128.166 Y168.732 E5.16387
G1 X128.029 Y167.531 E5.20408
G1 X127.957 Y166.435 E5.24061
G1 X127.94 Y165.349 E5.27673
G1 X127.977 Y164.27 E5.31264
G1 X128.067 Y163.2 E5.34836
G1 X128.187 Y162.275 E5.37938
G1 X128.418 Y161.031 E5.42146
G1 X128.656 Y160.015 E5.45617
G1 X128.939 Y159.028 E5.49032
G1 X129.312 Y157.939 E5.52861
G1 X129.706 Y156.943 E5.56423
G1 X130.146 Y155.969 E5.59978
G1 X130.614 Y155.058 E5.63384
G1 X131.193 Y154.059 E5.67225
G1 X131.778 Y153.149 E5.70823
G1 X132.353 Y152.346 E5.74108
G1 X133.084 Y151.429 E5.78008
G1 X133.864 Y150.539 E5.81944
G1 X132.958 Y149.575 E5.86344
G1 X132.261 Y148.757 E5.89919
G1 X131.577 Y147.861 E5.93668
G1 X130.92 Y146.908 E5.97518
G1 X130.335 Y145.962 E6.01217
G1 X129.789 Y144.979 E6.04957
G1 X129.29 Y143.972 E6.08695
G1 X128.862 Y142.986 E6.1227
G1 X128.505 Y142.049 E6.15605
G1 X128.112 Y140.829 E6.19868
G1 X127.84 Y139.824 E6.23331
G1 X127.608 Y138.762 E6.26947
G1 X127.43 Y137.698 E6.30535
G1 X127.285 Y136.432 E6.34773
G1 X127.211 Y135.31 E6.38513
G1 X127.193 Y134.181 E6.42269
G1 X127.231 Y133.093 E6.45889
G1 X127.318 Y131.997 E6.49546
G1 X127.472 Y130.843 E6.53418
G1 X127.644 Y129.896 E6.5662
G1 X127.925 Y128.706 E6.60687
G1 X128.228 Y127.621 E6.64433
G1 X128.526 Y126.726 E6.67571
G1 X129.011 Y125.492 E6.71981
G1 X129.439 Y124.546 E6.75434
G1 X129.953 Y123.534 E6.79209
G1 X130.445 Y122.674 E6.82505
G1 X131.147 Y121.583 E6.8682
G1 X131.744 Y120.749 E6.90231
G1 X132.506 Y119.79 E6.94305
G1 X133.233 Y118.954 E6.9799
G0 F6000 X133.521 Y119.231
G1 F900 X134.18 Y118.546 E7.01151
G1 X135.115 Y117.67 E7.05413
G1 X135.934 Y116.981 E7.08973
G1 X136.815 Y116.301 E7.12674
G1 X137.704 Y115.687 E7.16268
G1 X138.67 Y115.089 E7.20046
G1 X139.604 Y114.572 E7.23597
G1 X140.626 Y114.066 E7.2739
G1 X141.596 Y113.647 E7.30904
G1 X142.616 Y113.26 E7.34533
G1 X143.543 Y112.96 E7.37774
G1 X144.745 Y112.636 E7.41914
G1 X145.775 Y112.411 E7.45421
G1 X146.786 Y112.242 E7.4883
G1 X148.036 Y112.099 E7.53015
G1 X149.12 Y112.028 E7.56628
G1 X150.253 Y112.01 E7.60397
G1 X151.31 Y112.047 E7.63914
G1 X152.326 Y112.128 E7.67304
G1 X153.526 Y112.288 E7.71331
G1 X154.459 Y112.456 E7.74484
G1 X155.689 Y112.747 E7.78688
G1 X156.721 Y113.043 E7.82259
G1 X157.662 Y113.363 E7.85564
G1 X158.771 Y113.799 E7.89528
G1 X159.724 Y114.23 E7.93007
G1 X160.726 Y114.745 E7.96754
G1 X161.689 Y115.302 E8.00454
G1 X162.566 Y115.866 E8.03922
G1 X163.473 Y116.513 E8.07627
G1 X164.363 Y117.22 E8.11408
G1 X165.15 Y117.902 E8.14872
G1 X165.822 Y118.545 E8.17965
G1 X166.737 Y119.518 E8.22407
G1 X167.417 Y120.315 E8.25892
G1 X168.082 Y121.183 E8.29529
G1 X168.739 Y122.135 E8.33376
G1 X169.314 Y123.065 E8.37013
G1 X169.853 Y124.034 E8.40701
G1 X170.342 Y125.022 E8.44367
G1 X170.778 Y126.031 E8.48023
G1 X171.151 Y127.014 E8.5152
G1 X171.457 Y127.959 E8.54824
G1 X171.782 Y129.168 E8.58988
G1 X171.998 Y130.153 E8.62342
G1 X172.18 Y131.241 E8.66011
G1 X172.316 Y132.425 E8.69974
G1 X172.389 Y133.532 E8.73664
G1 X172.407 Y134.642 E8.77357
G1 X172.37 Y135.706 E8.80898
G1 X172.283 Y136.805 E8.84564
G1 X172.134 Y137.929 E8.88336
G1 X171.962 Y138.875 E8.91534
G1 X171.69 Y140.021 E8.95451
G1 X171.397 Y141.07 E8.99074
G1 X171.08 Y142.023 E9.02414
G1 X170.651 Y143.119 E9.06329
G1 X170.193 Y144.133 E9.10029
G1 X169.709 Y145.077 E9.13558
G1 X169.114 Y146.111 E9.17526
G1 X168.542 Y147 E9.21042
G1 X167.927 Y147.861 E9.24561
G1 X167.192 Y148.783 E9.28482
G1 X166.477 Y149.604 E9.32104
G1 X165.803 Y150.304 E9.35336
G1 X165.562 Y150.53 E9.36434
G1 X166.189 Y151.193 E9.39469
G1 X166.864 Y151.988 E9.42938
G1 X167.507 Y152.829 E9.46459
G1 X168.111 Y153.705 E9.49998
G1 X168.641 Y154.553 E9.53324
G1 X169.189 Y155.545 E9.57094
G1 X169.664 Y156.503 E9.6065
G1 X170.038 Y157.359 E9.63757
G1 X170.459 Y158.48 E9.6774
G1 X170.788 Y159.49 E9.71273
G1 X171.046 Y160.44 E9.74547
G1 X171.265 Y161.443 E9.77962
G1 X171.435 Y162.46 E9.81391
G1 X171.572 Y163.66 E9.85408
G1 X171.643 Y164.736 E9.88995
G1 X171.66 Y165.806 E9.92554
G1 X171.624 Y166.848 E9.96022
G1 X171.54 Y167.891 E9.99502
G1 X171.395 Y168.977 E10.03146
G1 X171.234 Y169.867 E10.06154
G1 X170.955 Y171.057 E10.1022
G1 X170.67 Y172.052 E10.13662
G1 X170.323 Y173.063 E10.17217
G1 X169.929 Y174.059 E10.2078
G1 X169.498 Y175.014 E10.24265
G1 X169.043 Y175.902 E10.27583
G1 X168.493 Y176.858 E10.31252
G1 X167.906 Y177.77 E10.34859
G1 X167.319 Y178.59 E10.38213
G1 X166.613 Y179.477 E10.41984
G1 X165.933 Y180.257 E10.45425
G1 X165.27 Y180.946 E10.48606
G1 X164.405 Y181.768 E10.52575
G1 X163.784 Y182.301 E10.55296
G1 X162.716 Y183.113 E10.59759
G1 X161.85 Y183.71 E10.63257
G1 X160.96 Y184.261 E10.66739
G1 X160.019 Y184.783 E10.70318
G1 X159.099 Y185.238 E10.73731
G1 X158.115 Y185.661 E10.77294
G1 X157.1 Y186.042 E10.809
G1 X156.089 Y186.371 E10.84436
G1 X155.141 Y186.628 E10.87703
G1 X154.105 Y186.854 E10.9123
G1 X153.142 Y187.015 E10.94477
G1 X151.904 Y187.156 E10.98621
G1 X150.853 Y187.225 E11.02124
G1 X149.764 Y187.243 E11.05747
G1 X148.72 Y187.205 E11.09222
G1 X147.759 Y187.129 E11.12428
G1 X146.607 Y186.975 E11.16293
G1 X145.721 Y186.817 E11.19287
G1 X144.523 Y186.535 E11.2338
G1 X143.492 Y186.239 E11.26948
G1 X142.503 Y185.9 E11.30425
G1 X141.492 Y185.499 E11.34043
G1 X140.599 Y185.094 E11.37304
G1 X139.65 Y184.61 E11.40847
G1 X138.813 Y184.131 E11.44055
G1 X137.849 Y183.511 E11.47867
G1 X136.93 Y182.853 E11.51626
G1 X136.096 Y182.189 E11.55172
G1 X135.361 Y181.552 E11.58407
G1 X134.698 Y180.917 E11.6146
G1 X133.814 Y179.976 E11.65754
G1 X133.134 Y179.178 E11.69242
G1 X132.518 Y178.369 E11.72623
G1 X131.868 Y177.426 E11.76433
G1 X131.322 Y176.543 E11.79886
G1 X130.811 Y175.621 E11.83392
G1 X130.338 Y174.666 E11.86936
G1 X129.93 Y173.734 E11.9032
G1 X129.554 Y172.742 E11.93849
G1 X129.263 Y171.843 E11.96992
G1 X128.943 Y170.65 E12.011
G1 X128.731 Y169.681 E12.04399
G1 X128.561 Y168.666 E12.07822
G1 X128.428 Y167.505 E12.11709
G1 X128.357 Y166.429 E12.15295
G1 X128.34 Y165.363 E12.18841
G1 X128.376 Y164.303 E12.22369
G1 X128.464 Y163.251 E12.2588
G1 X128.584 Y162.326 E12.28982
G1 X128.807 Y161.122 E12.33055
G1 X129.041 Y160.125 E12.36461
G1 X129.324 Y159.138 E12.39876
G1 X129.684 Y158.086 E12.43574
G1 X130.071 Y157.108 E12.47073
G1 X130.511 Y156.134 E12.50627
G1 X130.96 Y155.258 E12.53901
G1 X131.529 Y154.275 E12.57679
G1 X132.103 Y153.382 E12.6121
G1 X132.666 Y152.595 E12.64428
G1 X133.386 Y151.691 E12.68272
G1 X134.078 Y150.894 E12.71783
G1 X134.429 Y150.531 E12.73462
G1 X134.199 Y150.312 E12.74518
G1 X133.262 Y149.315 E12.79069
G1 X132.579 Y148.514 E12.8257
G1 X131.906 Y147.634 E12.86255
G1 X131.26 Y146.698 E12.90038
G1 X130.685 Y145.768 E12.93674
G1 X130.147 Y144.801 E12.97355
G1 X129.657 Y143.813 E13.01023
G1 X129.236 Y142.844 E13.04537
G1 X128.886 Y141.926 E13.07804
G1 X128.498 Y140.724 E13.12005
G1 X128.231 Y139.739 E13.154
G1 X128.003 Y138.696 E13.18951
G1 X127.825 Y137.632 E13.22539
G1 X127.684 Y136.406 E13.26643
G1 X127.611 Y135.304 E13.30317
G1 X127.593 Y134.195 E13.34006
G1 X127.63 Y133.125 E13.37567
G1 X127.717 Y132.029 E13.41223
G1 X127.866 Y130.914 E13.44965
G1 X128.038 Y129.967 E13.48166
G1 X128.31 Y128.814 E13.52106
G1 X128.608 Y127.747 E13.55791
G1 X128.906 Y126.852 E13.58928
G1 X129.375 Y125.657 E13.63198
G1 X129.796 Y124.727 E13.66594
G1 X130.3 Y123.733 E13.703
G1 X130.792 Y122.873 E13.73596
G1 X131.472 Y121.816 E13.77776
G1 X132.057 Y120.998 E13.81121
G1 X132.808 Y120.052 E13.85138
G1 X133.521 Y119.231 E13.88755
G0 F6000 X133.809 Y119.508
G1 F900 X134.453 Y118.838 E13.91846
G1 X135.373 Y117.976 E13.96039
G1 X136.179 Y117.297 E13.99544
G1 X137.042 Y116.63 E14.03172
G1 X137.915 Y116.027 E14.06701
G1 X138.864 Y115.439 E14.10414
G1 X139.782 Y114.93 E14.13905
G1 X140.785 Y114.433 E14.17628
G1 X141.738 Y114.021 E14.21081
G1 X142.739 Y113.641 E14.24643
G1 X143.666 Y113.341 E14.27883
G1 X144.831 Y113.027 E14.31896
G1 X145.841 Y112.806 E14.35335
G1 X146.852 Y112.637 E14.38744
G1 X148.062 Y112.498 E14.42795
G1 X149.126 Y112.428 E14.46342
G1 X150.239 Y112.41 E14.50044
G1 X151.278 Y112.446 E14.53502
G1 X152.294 Y112.527 E14.56892
G1 X153.455 Y112.682 E14.60788
G1 X154.388 Y112.85 E14.63941
G1 X155.579 Y113.131 E14.68011
G1 X156.592 Y113.422 E14.71516
G1 X157.533 Y113.742 E14.74822
G1 X158.606 Y114.163 E14.78656
G1 X159.541 Y114.586 E14.82069
G1 X160.543 Y115.101 E14.85816
G1 X161.473 Y115.638 E14.89388
G1 X162.334 Y116.192 E14.92793
G1 X163.224 Y116.826 E14.96428
G1 X164.101 Y117.522 E15.00152
G1 X164.873 Y118.191 E15.03549
G1 X165.545 Y118.834 E15.06643
G1 X166.433 Y119.778 E15.10953
G1 X167.113 Y120.575 E15.14438
G1 X167.753 Y121.41 E15.17937
G1 X168.399 Y122.345 E15.21717
G1 X168.965 Y123.26 E15.25295
G1 X169.495 Y124.212 E15.28919
G1 X169.975 Y125.181 E15.32516
G1 X170.404 Y126.173 E15.36111
G1 X170.77 Y127.137 E15.3954
G1 X171.076 Y128.082 E15.42844
G1 X171.391 Y129.254 E15.46881
G1 X171.603 Y130.219 E15.50167
G1 X171.785 Y131.307 E15.53836
G1 X171.917 Y132.451 E15.57666
G1 X171.989 Y133.539 E15.61292
G1 X172.007 Y134.628 E15.64915
G1 X171.971 Y135.675 E15.68399
G1 X171.886 Y136.753 E15.71996
G1 X171.74 Y137.857 E15.757
G1 X171.568 Y138.803 E15.78898
G1 X171.305 Y139.913 E15.82692
G1 X171.017 Y140.944 E15.86252
G1 X170.7 Y141.897 E15.89593
G1 X170.286 Y142.954 E15.93368
G1 X169.828 Y143.968 E15.97069
G1 X169.362 Y144.878 E16.00469
G1 X168.777 Y145.895 E16.04372
G1 X168.216 Y146.768 E16.07823
G1 X167.614 Y147.612 E16.11271
G1 X166.89 Y148.521 E16.15136
G1 X166.189 Y149.327 E16.18689
G1 X165.53 Y150.012 E16.21851
G1 X164.995 Y150.513 E16.24288
G1 X165.884 Y151.452 E16.28589
G1 X166.546 Y152.231 E16.31989
G1 X167.178 Y153.056 E16.35446
G1 X167.772 Y153.917 E16.38925
G1 X168.291 Y154.746 E16.42178
G1 X168.831 Y155.723 E16.45891
G1 X169.297 Y156.663 E16.49381
G1 X169.671 Y157.519 E16.52487
G1 X170.079 Y158.604 E16.56343
G1 X170.402 Y159.595 E16.5981
G1 X170.655 Y160.525 E16.63015
G1 X170.87 Y161.509 E16.66365
G1 X171.04 Y162.526 E16.69795
G1 X171.173 Y163.686 E16.73678
G1 X171.243 Y164.742 E16.77198
G1 X171.26 Y165.792 E16.80691
G1 X171.225 Y166.816 E16.84099
G1 X171.141 Y167.859 E16.87579
G1 X171.001 Y168.906 E16.91092
G1 X170.84 Y169.796 E16.94101
G1 X170.57 Y170.947 E16.98033
G1 X170.285 Y171.942 E17.01475
G1 X169.951 Y172.916 E17.049
G1 X169.564 Y173.894 E17.08398
G1 X169.133 Y174.849 E17.11883
G1 X168.696 Y175.703 E17.15074
G1 X168.146 Y176.659 E17.18742
G1 X167.581 Y177.537 E17.22215
G1 X167.006 Y178.341 E17.25502
G1 X166.311 Y179.214 E17.29214
G1 X165.631 Y179.994 E17.32655
G1 X164.994 Y180.656 E17.35711
G1 X164.144 Y181.464 E17.39612
G1 X163.523 Y181.997 E17.42334
G1 X162.489 Y182.784 E17.46655
G1 X161.639 Y183.37 E17.50089
G1 X160.766 Y183.911 E17.53505
G1 X159.842 Y184.424 E17.5702
G1 X158.922 Y184.879 E17.60434
G1 X157.974 Y185.287 E17.63867
G1 X156.976 Y185.662 E17.67413
G1 X155.984 Y185.985 E17.70883
G1 X155.056 Y186.237 E17.74081
G1 X154.039 Y186.459 E17.77543
